**harmony	**harte	**kern	**silbe	**kern	**silbe	**rhyme	**timestamp	**phrase
*M4/4	*M4/4	*ICvox	*	*ICvox	*	*	*	*
*	*	*VRlead	*	*VRharmonize	*	*	*	*
*	*	*Hstimme	*	*Nstimme	*	*	*	*
*G:	*G:	*G:	*	*G:	*	*	*	*
*	*	*M4/4	*	*M4/4	*	*	*	*
*	*	*clefG2	*	*clefG2	*	*	*	*
1r;	1r	r;	.	r;	.	.	0	.
=1	=1	=1	=1	=1	=1	=1	=1	=1
*>Letter>A	*>Letter>A	*>Letter>A	*>Letter>A	*>Letter>A	*>Letter>A	*>Letter>A	*>Letter>A	*>Letter>A
*>Label>Intro	*>Label>Intro	*>Label>Intro	*>Label>Intro	*>Label>Intro	*>Label>Intro	*>Label>Intro	*>Label>Intro	*>Label>Intro
1DMm;	D:sus4(b7)	2r	.	2r	.	.	0.571	newline
.	.	8r	.	2r	.	.	.	.
.	.	8B	It's	.	.	.	.	.
.	.	8c	been	.	.	.	.	.
.	.	8B	a	.	.	.	.	.
=2	=2	=2	=2	=2	=2	=2	=2	=2
*>Letter>B	*>Letter>B	*>Letter>B	*>Letter>B	*>Letter>B	*>Letter>B	*>Letter>B	*>Letter>B	*>Letter>B
*>Label>Chorus	*>Label>Chorus	*>Label>Chorus	*>Label>Chorus	*>Label>Chorus	*>Label>Chorus	*>Label>Chorus	*>Label>Chorus	*>Label>Chorus
2GM	G:maj	2d	hard	1r	.	.	3.82	newline
2CM	C:maj	4.d	day's	.	.	.	4.671	.
.	.	[8d	night	.	.	A	.	.
=3	=3	=3	=3	=3	=3	=3	=3	=3
1GM	G:maj	8d]	_	1r	.	.	5.522	.
.	.	2r	.	.	.	.	.	.
.	.	8d	and	.	.	.	.	.
.	.	8d	I've	.	.	.	.	.
.	.	8c	been	.	.	.	.	.
=4	=4	=4	=4	=4	=4	=4	=4	=4
1FM	F:maj	8d	work-	1r	.	.	7.224	.
.	.	2f	-in'	.	.	.	.	.
.	.	8d	like	.	.	.	.	.
.	.	8c	a	.	.	.	.	.
.	.	16d	dog	.	.	B	.	.
.	.	16c	_	.	.	.	.	.
=5	=5	=5	=5	=5	=5	=5	=5	=5
1GM	G:maj	4B	_	1r	.	.	8.926	.
.	.	4.r	.	.	.	.	.	.
.	.	8B	It's	.	.	.	.	.
.	.	8c	been	.	.	.	.	.
.	.	8B	a	.	.	.	.	.
=6	=6	=6	=6	=6	=6	=6	=6	=6
2GM	G:maj	2d	hard	1r	.	.	10.628	newline
2CM	C:maj	4.d	day's	.	.	.	11.485	.
.	.	[8d	night	.	.	A	.	.
=7	=7	=7	=7	=7	=7	=7	=7	=7
1GM	G:maj	8d]	_	1r	.	.	12.342	.
.	.	2r	.	.	.	.	.	.
.	.	8c	I	.	.	.	.	.
.	.	8d	should	.	.	.	.	.
.	.	8c	be	.	.	.	.	.
=8	=8	=8	=8	=8	=8	=8	=8	=8
1FM	F:maj	8d	slee-	1r	.	.	14.056	.
.	.	2f	-pin'	.	.	.	.	.
.	.	8d	like	.	.	.	.	.
.	.	8c	a	.	.	.	.	.
.	.	16d	log	.	.	B	.	.
.	.	16c	_	.	.	.	.	.
=9	=9	=9	=9	=9	=9	=9	=9	=9
1GM	G:maj	4B	_	2r	.	.	15.77	.
.	.	4.r	.	.	.	.	.	.
.	.	.	.	8r	.	.	.	.
.	.	8e	But	8c	But	.	.	.
.	.	8f	when	8d	when	.	.	.
.	.	8f#	I	8d#	I	.	.	.
=10	=10	=10	=10	=10	=10	=10	=10	=10
1CM	C:maj	8g	get	8e	get	.	17.484	newline
.	.	8f#	home	8d#	home	.	.	.
.	.	8f	to	8d	to	.	.	.
.	.	8e	you	8c	you	C	.	.
.	.	8r	.	8r	.	.	.	.
.	.	8g	I	8e	I	.	.	.
.	.	8g	find	8e	find	.	.	.
.	.	8g#	the	8e#	the	.	.	.
=11	=11	=11	=11	=11	=11	=11	=11	=11
1DM	D:maj	8a	things	8f#	things	.	19.21	.
.	.	8a-	that	8f	that	.	.	.
.	.	8g	you	8e	you	C	.	.
.	.	8f#	do	8d	do	C	.	.
.	.	8r	.	2r	.	.	.	.
.	.	8B	will	.	.	.	.	.
.	.	8c	make	.	.	.	.	.
.	.	8B	me	.	.	.	.	.
=12	=12	=12	=12	=12	=12	=12	=12	=12
2GM	G:maj	8d	feel	1r	.	.	20.936	.
.	.	4.G	_	.	.	.	.	.
2CM	C:maj	8B-	al-	.	.	.	21.799	.
.	.	4c	_	.	.	.	.	.
.	.	[8B-	-right	.	.	A	.	.
=13	=13	=13	=13	=13	=13	=13	=13	=13
1GM	G:maj	8B-]	_	1r	.	.	22.662	.
.	.	2r	.	.	.	.	.	.
.	.	8B	You	.	.	.	.	.
.	.	8c	know	.	.	.	.	.
.	.	8B	I	.	.	.	.	.
=14	=14	=14	=14	=14	=14	=14	=14	=14
*>Letter>B	*>Letter>B	*>Letter>B	*>Letter>B	*>Letter>B	*>Letter>B	*>Letter>B	*>Letter>B	*>Letter>B
*>Label>Verse	*>Label>Verse	*>Label>Verse	*>Label>Verse	*>Label>Verse	*>Label>Verse	*>Label>Verse	*>Label>Verse	*>Label>Verse
2GM	G:maj	2d	work	1r	.	.	24.388	newline
2CM	C:maj	4.d	all	.	.	.	25.244	.
.	.	[8d	day	.	.	D	.	.
=15	=15	=15	=15	=15	=15	=15	=15	=15
1GM	G:maj	4d]	_	1r	.	.	26.1	.
.	.	4.r	.	.	.	.	.	.
.	.	8d	to	.	.	.	.	.
.	.	8d	get	.	.	.	.	.
.	.	8c	you	.	.	.	.	.
=16	=16	=16	=16	=16	=16	=16	=16	=16
1FM	F:maj	8d	mo-	1r	.	.	27.813	.
.	.	2f	-ney	.	.	.	.	.
.	.	8d	to	.	.	.	.	.
.	.	8d	buy	.	.	.	.	.
.	.	8c	you	.	.	.	.	.
=17	=17	=17	=17	=17	=17	=17	=17	=17
1GM	G:maj	16d	things	1r	.	E	29.525	.
.	.	16c	_	.	.	.	.	.
.	.	8B	_	.	.	.	.	.
.	.	2r	.	.	.	.	.	.
.	.	8c	And	.	.	.	.	.
.	.	8B	it's	.	.	.	.	.
=18	=18	=18	=18	=18	=18	=18	=18	=18
2GM	G:maj	8d	worth	1r	.	.	31.237	newline
.	.	8d	it	.	.	.	.	.
.	.	8d	just	.	.	.	.	.
.	.	8d	to	.	.	.	.	.
2CM	C:maj	8d	hear	.	.	.	32.099	.
.	.	4d	you	.	.	.	.	.
.	.	[8d	say	.	.	D	.	.
=19	=19	=19	=19	=19	=19	=19	=19	=19
1GM	G:maj	8d]	_	1r	.	.	32.96	.
.	.	2r	.	.	.	.	.	.
.	.	8c	You're	.	.	.	.	.
.	.	8d	go-	.	.	.	.	.
.	.	8c	-nna	.	.	.	.	.
=20	=20	=20	=20	=20	=20	=20	=20	=20
1FM	F:maj	8d	give	1r	.	.	34.682	.
.	.	2f	me	.	.	.	.	.
.	.	8d	ev-	.	.	.	.	.
.	.	8c	-ery-	.	.	.	.	.
.	.	16d	-thing	.	.	E	.	.
.	.	16c	_	.	.	.	.	.
=21	=21	=21	=21	=21	=21	=21	=21	=21
1GM	G:maj	4B	_	2r	.	.	36.405	.
.	.	4.r	.	.	.	.	.	.
.	.	.	.	8r	.	.	.	.
.	.	8e	So	8c	So	.	.	.
.	.	8f	why	8d	why	.	.	.
.	.	8f#	on	8d#	on	.	.	.
=22	=22	=22	=22	=22	=22	=22	=22	=22
1CM	C:maj	8g	earth	8e	earth	.	38.127	newline
.	.	8f#	should	8d#	should	.	.	.
.	.	8f	I	8d	I	.	.	.
.	.	8e	moan	8c	moan	F	.	.
.	.	8r	.	8r	.	.	.	.
.	.	8g	'cause	8e	'cause	.	.	.
.	.	8g	when	8e	when	.	.	.
.	.	8g#	I	8e#	I	.	.	.
=23	=23	=23	=23	=23	=23	=23	=23	=23
1DM	D:maj	8a	get	8f#	get	.	39.861	.
.	.	8a-	you	8f	you	.	.	.
.	.	8g	a-	8e	a-	.	.	.
.	.	8f#	-lone	8d	-lone	F	.	.
.	.	8r	.	2r	.	.	.	.
.	.	8B	You	.	.	.	.	.
.	.	8c	know	.	.	.	.	.
.	.	8B	I	.	.	.	.	.
=24	=24	=24	=24	=24	=24	=24	=24	=24
2GM	G:maj	8d	feel	1r	.	.	41.594	.
.	.	4.G	_	.	.	.	.	.
2CM	C:maj	8B-	o-	.	.	.	42.461	.
.	.	4c	_	.	.	.	.	.
.	.	[8B-	-kay	.	.	D	.	.
=25	=25	=25	=25	=25	=25	=25	=25	=25
1GM	G:maj	4B-]	_	1r	.	.	43.328	.
.	.	4r	.	.	.	.	.	.
.	.	8d	When	.	.	.	.	.
.	.	4g	I'm	.	.	.	.	.
.	.	[8f#	home	.	.	F	.	.
=26	=26	=26	=26	=26	=26	=26	=26	=26
*>Letter>C	*>Letter>C	*>Letter>C	*>Letter>C	*>Letter>C	*>Letter>C	*>Letter>C	*>Letter>C	*>Letter>C
*>Label>Bridge	*>Label>Bridge	*>Label>Bridge	*>Label>Bridge	*>Label>Bridge	*>Label>Bridge	*>Label>Bridge	*>Label>Bridge	*>Label>Bridge
1Bm	B:min	2.f#]	_	1r	.	.	45.061	newline
.	.	4r	.	.	.	.	.	.
=27	=27	=27	=27	=27	=27	=27	=27	=27
1Em	E:min	8g	ev-	1r	.	.	46.811	.
.	.	8f#	-ery-	.	.	.	.	.
.	.	8e	-thing	.	.	.	.	.
.	.	4e	seems	.	.	.	.	.
.	.	8f#	to	.	.	.	.	.
.	.	8g	be	.	.	.	.	.
.	.	8e	_	.	.	.	.	.
=28	=28	=28	=28	=28	=28	=28	=28	=28
1Bm	B:min	4.f#	right	1r	.	A	48.56	.
.	.	4.r	.	.	.	.	.	.
.	.	4r	.	.	.	.	.	.
=29	=29	=29	=29	=29	=29	=29	=29	=29
1Bm	B:min	2r	.	1r	.	.	50.31	.
.	.	8d	When	.	.	.	.	.
.	.	4f#	I'm	.	.	.	.	.
.	.	[8g	home	.	.	F	.	.
=30	=30	=30	=30	=30	=30	=30	=30	=30
1GM	G:maj	2g]	_	1r	.	.	52.059	newline
.	.	2r	.	.	.	.	.	.
=31	=31	=31	=31	=31	=31	=31	=31	=31
1Em	E:min	8g	feel-	1r	.	.	53.783	.
.	.	8f#	-ing	.	.	.	.	.
.	.	8e	you	.	.	.	.	.
.	.	4e	hol-	.	.	.	.	.
.	.	8f#	-ding	.	.	.	.	.
.	.	4g	me	.	.	.	.	.
=32	=32	=32	=32	=32	=32	=32	=32	=32
1CM	C:maj	2a	tight	1r	.	A	55.507	.
.	.	4.r	.	.	.	.	.	.
.	.	[8a	tight	.	.	A	.	.
=33	=33	=33	=33	=33	=33	=33	=33	=33
1DM	D:maj	4.a]	_	1r	.	.	57.231	.
.	.	4a	yeah	.	.	.	.	.
.	.	8B	It's	.	.	.	.	.
.	.	8c	been	.	.	.	.	.
.	.	8B	a	.	.	.	.	.
=34	=34	=34	=34	=34	=34	=34	=34	=34
*>Letter>B	*>Letter>B	*>Letter>B	*>Letter>B	*>Letter>B	*>Letter>B	*>Letter>B	*>Letter>B	*>Letter>B
*>Label>Chorus	*>Label>Chorus	*>Label>Chorus	*>Label>Chorus	*>Label>Chorus	*>Label>Chorus	*>Label>Chorus	*>Label>Chorus	*>Label>Chorus
2GM	G:maj	2d	hard	1r	.	.	58.955	newline
2CM	C:maj	4.d	day's	.	.	.	59.827	.
.	.	[8d	night	.	.	A	.	.
=35	=35	=35	=35	=35	=35	=35	=35	=35
1GM	G:maj	8d]	_	1r	.	.	60.698	.
.	.	2r	.	.	.	.	.	.
.	.	8c	and	.	.	.	.	.
.	.	8d	I've	.	.	.	.	.
.	.	8c	been	.	.	.	.	.
=36	=36	=36	=36	=36	=36	=36	=36	=36
1FM	F:maj	8d	work-	1r	.	.	62.441	.
.	.	2f	-in'	.	.	.	.	.
.	.	8d	like	.	.	.	.	.
.	.	8c	a	.	.	.	.	.
.	.	16d	dog	.	.	B	.	.
.	.	16c	_	.	.	.	.	.
=37	=37	=37	=37	=37	=37	=37	=37	=37
1GM	G:maj	4B	_	1r	.	.	64.184	.
.	.	4.r	.	.	.	.	.	.
.	.	8B	It's	.	.	.	.	.
.	.	8c	been	.	.	.	.	.
.	.	8B	a	.	.	.	.	.
=38	=38	=38	=38	=38	=38	=38	=38	=38
2GM	G:maj	2d	hard	1r	.	.	65.927	newline
2CM	C:maj	4.d	day's	.	.	.	66.798	.
.	.	[8d	night	.	.	A	.	.
=39	=39	=39	=39	=39	=39	=39	=39	=39
1GM	G:maj	8d]	_	1r	.	.	67.669	.
.	.	2r	.	.	.	.	.	.
.	.	8c	I	.	.	.	.	.
.	.	8d	should	.	.	.	.	.
.	.	8c	be	.	.	.	.	.
=40	=40	=40	=40	=40	=40	=40	=40	=40
1FM	F:maj	8d	slee-	1r	.	.	69.412	.
.	.	2f	-pin'	.	.	.	.	.
.	.	8d	like	.	.	.	.	.
.	.	8c	a	.	.	.	.	.
.	.	16d	log	.	.	B	.	.
.	.	16c	_	.	.	.	.	.
=41	=41	=41	=41	=41	=41	=41	=41	=41
1GM	G:maj	4B	_	2r	.	.	71.155	.
.	.	4.r	.	.	.	.	.	.
.	.	.	.	8r	.	.	.	.
.	.	8e	But	8c	But	.	.	.
.	.	8f	when	8d	when	.	.	.
.	.	8f#	I	8d#	I	.	.	.
=42	=42	=42	=42	=42	=42	=42	=42	=42
1CM	C:maj	8g	get	8e	get	.	72.898	newline
.	.	8f#	home	8d#	home	F	.	.
.	.	8f	to	8d	to	C	.	.
.	.	8e	you	8c	you	C	.	.
.	.	8r	.	8r	.	.	.	.
.	.	8g	I	8e	I	.	.	.
.	.	8g	find	8e	find	.	.	.
.	.	8g#	the	8e#	the	.	.	.
=43	=43	=43	=43	=43	=43	=43	=43	=43
1DM	D:maj	8a	things	8f#	things	.	74.645	.
.	.	8a-	that	8f	that	.	.	.
.	.	8g	you	8e	you	C	.	.
.	.	8f#	do	8d	do	C	.	.
.	.	8r	.	2r	.	.	.	.
.	.	8B	will	.	.	.	.	.
.	.	8c	make	.	.	.	.	.
.	.	8B	me	.	.	.	.	.
=44	=44	=44	=44	=44	=44	=44	=44	=44
2GM	G:maj	8d	feel	1r	.	.	76.392	.
.	.	4.G	_	.	.	.	.	.
2CM	C:maj	8B-	al-	.	.	.	77.265	.
.	.	4c	_	.	.	.	.	.
.	.	[8B-	-right	.	.	A	.	.
=45	=45	=45	=45	=45	=45	=45	=45	=45
1GM	G:maj	8B-]	_	1r	.	.	78.139	.
.	.	2..r	.	.	.	.	.	.
=46	=46	=46	=46	=46	=46	=46	=46	=46
*>Letter>B	*>Letter>B	*>Letter>B	*>Letter>B	*>Letter>B	*>Letter>B	*>Letter>B	*>Letter>B	*>Letter>B
*>Label>Solo	*>Label>Solo	*>Label>Solo	*>Label>Solo	*>Label>Solo	*>Label>Solo	*>Label>Solo	*>Label>Solo	*>Label>Solo
2GM	G:maj	1r	.	1r	.	.	79.886	newline
2CM	C:maj	.	.	.	.	.	80.755	.
=47	=47	=47	=47	=47	=47	=47	=47	=47
1GM	G:maj	1r	.	1r	.	.	81.624	.
=48	=48	=48	=48	=48	=48	=48	=48	=48
1FM	F:maj	1r	.	1r	.	.	83.363	.
=49	=49	=49	=49	=49	=49	=49	=49	=49
1GM	G:maj	1r	.	1r	.	.	85.102	.
=50	=50	=50	=50	=50	=50	=50	=50	=50
2GM	G:maj	1r	.	1r	.	.	86.841	newline
2CM	C:maj	.	.	.	.	.	87.718	.
=51	=51	=51	=51	=51	=51	=51	=51	=51
1GM	G:maj	1r	.	1r	.	.	88.596	.
=52	=52	=52	=52	=52	=52	=52	=52	=52
1FM	F:maj	1r	.	1r	.	.	90.351	.
=53	=53	=53	=53	=53	=53	=53	=53	=53
1GM	G:maj	2r	.	2r	.	.	92.106	.
.	.	8r	.	8r	.	.	.	.
.	.	8e	So	8c	So	.	.	.
.	.	8f	why	8d	why	.	.	.
.	.	8f#	on	8d#	on	.	.	.
=54	=54	=54	=54	=54	=54	=54	=54	=54
1CM	C:maj	8g	earth	8e	earth	.	93.861	newline
.	.	8f#	should	8d#	should	.	.	.
.	.	8f	I	8d	I	.	.	.
.	.	8e	moan	8c	moan	F	.	.
.	.	8r	.	8r	.	.	.	.
.	.	8g	'cause	8e	'cause	.	.	.
.	.	8g	when	8e	when	.	.	.
.	.	8g#	I	8e#	I	.	.	.
=55	=55	=55	=55	=55	=55	=55	=55	=55
1DM	D:maj	8a	get	8f#	get	.	95.607	.
.	.	8a-	you	8f	you	.	.	.
.	.	8g	a-	8e	a-	.	.	.
.	.	8f#	-lone	8d	-lone	F	.	.
.	.	8r	.	2r	.	.	.	.
.	.	8B	You	.	.	.	.	.
.	.	8c	know	.	.	.	.	.
.	.	8B	I	.	.	.	.	.
=56	=56	=56	=56	=56	=56	=56	=56	=56
2GM	G:maj	8d	feel	1r	.	.	97.352	.
.	.	4.G	_	.	.	.	.	.
2CM	C:maj	8B-	o-	.	.	.	98.225	.
.	.	4c	_	.	.	.	.	.
.	.	[8B-	-kay	.	.	E	.	.
=57	=57	=57	=57	=57	=57	=57	=57	=57
1GM	G:maj	8B-]	_	1r	.	.	99.097	.
.	.	4.r	.	.	.	.	.	.
.	.	8d	When	.	.	.	.	.
.	.	4g	I'm	.	.	.	.	.
.	.	[8f#	home	.	.	F	.	.
=58	=58	=58	=58	=58	=58	=58	=58	=58
*>Letter>C	*>Letter>C	*>Letter>C	*>Letter>C	*>Letter>C	*>Letter>C	*>Letter>C	*>Letter>C	*>Letter>C
*>Label>Bridge	*>Label>Bridge	*>Label>Bridge	*>Label>Bridge	*>Label>Bridge	*>Label>Bridge	*>Label>Bridge	*>Label>Bridge	*>Label>Bridge
1Bm	B:min	2.f#]	_	1r	.	.	100.843	newline
.	.	4r	.	.	.	.	.	.
=59	=59	=59	=59	=59	=59	=59	=59	=59
1Em	E:min	8g	ev-	1r	.	.	102.571	.
.	.	8f#	-ery-	.	.	.	.	.
.	.	8e	-thing	.	.	.	.	.
.	.	4e	seems	.	.	.	.	.
.	.	8f#	to	.	.	.	.	.
.	.	8g	be	.	.	.	.	.
.	.	8e	_	.	.	.	.	.
=60	=60	=60	=60	=60	=60	=60	=60	=60
1Bm	B:min	4.f#	right	1r	.	A	104.299	.
.	.	4.d	_	.	.	.	.	.
.	.	4r	.	.	.	.	.	.
=61	=61	=61	=61	=61	=61	=61	=61	=61
1Bm	B:min	2r	.	1r	.	.	106.027	.
.	.	8d	When	.	.	.	.	.
.	.	4f#	I'm	.	.	.	.	.
.	.	[8g	home	.	.	F	.	.
=62	=62	=62	=62	=62	=62	=62	=62	=62
1GM	G:maj	2.g]	_	1r	.	.	107.755	newline
.	.	4r	.	.	.	.	.	.
=63	=63	=63	=63	=63	=63	=63	=63	=63
1Em	E:min	8g	fee-	1r	.	.	109.493	.
.	.	8f#	-ling	.	.	.	.	.
.	.	8e	you	.	.	.	.	.
.	.	4e	hol-	.	.	.	.	.
.	.	8f#	-ding	.	.	.	.	.
.	.	4g	me	.	.	.	.	.
=64	=64	=64	=64	=64	=64	=64	=64	=64
1CM	C:maj	2a	tight	1r	.	A	111.231	.
.	.	4.r	.	.	.	.	.	.
.	.	[8a	tight	.	.	A	.	.
=65	=65	=65	=65	=65	=65	=65	=65	=65
1DM	D:maj	4.a]	_	1r	.	.	112.969	.
.	.	4a	yeah	.	.	.	.	.
.	.	8B	It's	.	.	.	.	.
.	.	8c	been	.	.	.	.	.
.	.	8B	a	.	.	.	.	.
=66	=66	=66	=66	=66	=66	=66	=66	=66
*>Letter>B2	*>Letter>B2	*>Letter>B2	*>Letter>B2	*>Letter>B2	*>Letter>B2	*>Letter>B2	*>Letter>B2	*>Letter>B2
*>Label>Chorus	*>Label>Chorus	*>Label>Chorus	*>Label>Chorus	*>Label>Chorus	*>Label>Chorus	*>Label>Chorus	*>Label>Chorus	*>Label>Chorus
2GM	G:maj	2d	hard	1r	.	.	114.707	newline
2CM	C:maj	4.d	day's	.	.	.	115.583	.
.	.	[8d	night	.	.	A	.	.
=67	=67	=67	=67	=67	=67	=67	=67	=67
1GM	G:maj	8d]	_	1r	.	.	116.459	.
.	.	2r	.	.	.	.	.	.
.	.	8c	and	.	.	.	.	.
.	.	8d	I've	.	.	.	.	.
.	.	8c	been	.	.	.	.	.
=68	=68	=68	=68	=68	=68	=68	=68	=68
1FM	F:maj	8d	work-	1r	.	.	118.211	.
.	.	2f	-in'	.	.	.	.	.
.	.	8d	like	.	.	.	.	.
.	.	8c	a	.	.	.	.	.
.	.	16d	dog	.	.	B	.	.
.	.	16c	_	.	.	.	.	.
=69	=69	=69	=69	=69	=69	=69	=69	=69
1GM	G:maj	4B	_	1r	.	.	119.963	.
.	.	4.r	.	.	.	.	.	.
.	.	8B	It's	.	.	.	.	.
.	.	8c	been	.	.	.	.	.
.	.	8B	a	.	.	.	.	.
=70	=70	=70	=70	=70	=70	=70	=70	=70
2GM	G:maj	2d	hard	1r	.	.	121.715	newline
2CM	C:maj	4.d	day's	.	.	.	122.586	.
.	.	16d	night	.	.	A	.	.
.	.	16c	_	.	.	.	.	.
=71	=71	=71	=71	=71	=71	=71	=71	=71
1GM	G:maj	8B	_	1r	.	.	123.458	.
.	.	2r	.	.	.	.	.	.
.	.	8c	I	.	.	.	.	.
.	.	8d	should	.	.	.	.	.
.	.	8c	be	.	.	.	.	.
=72	=72	=72	=72	=72	=72	=72	=72	=72
1FM	F:maj	8d	slee-	1r	.	.	125.2	.
.	.	2f	-pin'	.	.	.	.	.
.	.	4d	like	.	.	.	.	.
.	.	8c	a	.	.	.	.	.
=73	=73	=73	=73	=73	=73	=73	=73	=73
1GM	G:maj	16d	log	2r	.	B	126.943	.
.	.	16c	_	.	.	.	.	.
.	.	8B	_	.	.	.	.	.
.	.	4.r	.	.	.	.	.	.
.	.	.	.	8r	.	.	.	.
.	.	8e	But	8c	But	.	.	.
.	.	8f	when	8d	when	.	.	.
.	.	8f#	I	8d#	I	.	.	.
=74	=74	=74	=74	=74	=74	=74	=74	=74
1CM	C:maj	8g	get	8e	get	.	128.686	newline
.	.	8f#	home	8d#	home	.	.	.
.	.	8f	to	8d	to	C	.	.
.	.	8e	you	8c	you	C	.	.
.	.	8r	.	8r	.	.	.	.
.	.	8g	I	8e	I	.	.	.
.	.	8g	find	8e	find	.	.	.
.	.	8g#	the	8e#	the	.	.	.
=75	=75	=75	=75	=75	=75	=75	=75	=75
1DM	D:maj	8a	things	8f#	things	.	130.453	.
.	.	8a-	that	8f	that	.	.	.
.	.	8g	you	8e	you	C	.	.
.	.	8f#	do	8d	do	C	.	.
.	.	8r	.	2r	.	.	.	.
.	.	8B	will	.	.	.	.	.
.	.	8c	make	.	.	.	.	.
.	.	8B	me	.	.	.	.	.
=76	=76	=76	=76	=76	=76	=76	=76	=76
2GM	G:maj	8d	feel	1r	.	.	132.221	.
.	.	4.G	_	.	.	.	.	.
2CM	C:maj	8B-	al-	.	.	.	133.105	.
.	.	4c	_	.	.	.	.	.
.	.	[8B-	-right	.	.	A	.	.
=77	=77	=77	=77	=77	=77	=77	=77	=77
1GM	G:maj	8B-]	_	1r	.	.	133.988	.
.	.	2r	.	.	.	.	.	.
.	.	8B	you	.	.	.	.	.
.	.	8c	know	.	.	.	.	.
.	.	8B	I	.	.	.	.	.
=78	=78	=78	=78	=78	=78	=78	=78	=78
2GM	G:maj	8d	feel	1r	.	.	135.756	newline
.	.	4.G	_	.	.	.	.	.
2CM	C:maj	8B-	al-	.	.	.	136.636	.
.	.	4c	_	.	.	.	.	.
.	.	[8B-	-right	.	.	A	.	.
=79	=79	=79	=79	=79	=79	=79	=79	=79
1GM	G:maj	8B-]	_	1r	.	.	137.516	.
.	.	2r	.	.	.	.	.	.
.	.	8B	you	.	.	.	.	.
.	.	8c	know	.	.	.	.	.
.	.	8B	I	.	.	.	.	.
=80	=80	=80	=80	=80	=80	=80	=80	=80
2GM	G:maj	2d	feel	1r	.	.	139.276	.
2CM	C:maj	4.d	al-	.	.	.	140.157	.
.	.	[8d	-right	.	.	A	.	.
=81	=81	=81	=81	=81	=81	=81	=81	=81
*>Letter>D	*>Letter>D	*>Letter>D	*>Letter>D	*>Letter>D	*>Letter>D	*>Letter>D	*>Letter>D	*>Letter>D
*>Label>Outro	*>Label>Outro	*>Label>Outro	*>Label>Outro	*>Label>Outro	*>Label>Outro	*>Label>Outro	*>Label>Outro	*>Label>Outro
1Dmm	D:min11	4d]	_	1r	.	.	141.037	newline
.	.	4r	.	.	.	.	.	.
.	.	2r	.	.	.	.	.	.
=82	=82	=82	=82	=82	=82	=82	=82	=82
1Dmm	D:min11	1r	.	1r	.	.	142.789	.
=83	=83	=83	=83	=83	=83	=83	=83	=83
1Dmm	D:min11	1r	.	1r	.	.	144.541	.
=84	=84	=84	=84	=84	=84	=84	=84	=84
1Dmm	D:min11	1r	.	1r	.	.	146.293	.
=85	=85	=85	=85	=85	=85	=85	=85	=85
1Dmm	D:min11	1r	.	1r	.	.	148.045	.
=86	=86	=86	=86	=86	=86	=86	=86	=86
1Dmm	D:min11	1r	.	1r	.	.	149.797	.
1r;	1r	r;	.	r;	.	.	151.549	.
1r;	1r	r;	.	r;	.	.	153.469	.
*-	*-	*-	*-	*-	*-	*-	*-	*-
!!!BillboardChartDate: 1964/09/19
!!!BillboardPeak: 1
!!!BillboardWeeksOnChart: 13
!!!COC: The Beatles
!!!EMD: Section labels should be changed: AABA. -Nat
!!!ENC: Nathaniel Condit-Schultz
!!!EST: Awating manual error checking and editing.
!!!OTL: A Hard Day's Night
!!!RDF**chordsym: original McGill chord annotation + (implied pitch class set, with bass pitch in first position)
!!!RDF**harmony: **recip + pitch class of root + harmonic quality
!!!RDF**leadinstrument: original McGill primary instrumentation annotation
!!!RDF**phrase: newline = linebreak in original McGill transcription
!!!RDF**timestamp: McGill audio timestamp in seconds
!!!RDT: 2017/01/12/
!!!SampleActualRank: 12
!!!SampleID#: 1142
!!!SampleTargetRank: 12
!!!MBID: c1d63906-f64a-4cd1-9873-9f3a9f98883c
